X: 1
T:A Drop of Whiskey -- slipjig
M:9/8
L:1/8
R:slipjig
B:Ryan's Mammoth Collection
Z:Contributed by Ray Davies. ray:davies99.freeserve.co.uk 28june02
K:G
vd2c BGB BGB|d2c BGB c2A|d2c BGB BGB|{d}cBc AFA c2A|
d2c BGB BGB|ded BGB c2A|ded BGB BGB|{d}cBc AFA cBA|]
GBd gdB gdB|GBd gdB c2A|GBd gba gdB|{d}cBc AFA c2A|
GBd gdB gdB|GBd gdB c2A|GBd gba gdB|{d}cBc AFA c2A"_D.C."|]
